X:495
T: ALLES LIEBT UND PAART SICH WIEDER
N: F0939
O: Europa, Mitteleuropa, Deutschland
R: Liebes - Lied
M: 4/4
L: 1/8
K: G
DD | G3GG3A | GFF2z2
DF | A3AAcBA | AGG2z2
BB | B3GG2AB | B2A2z2
cA | GFEDD2EF | AGG2z2
BG | GFEDD2EF | AGG2z2
BB | BAcAAGGF | d6
cB | BAcAAGGF | G4z2

